src/topics/icons/stripe.svg

<svg height="214" preserveAspectRatio="xMidYMid" viewBox="0 0 512 214" width="512" xmlns="http://www.w3.org/2000/svg"><path d="m35.9822222 83.4844444c0-5.5466666 4.5511111-7.68 12.0888889-7.68 10.8088889 0 24.4622222 3.2711112 35.2711111 9.1022223v-33.4222223c-11.8044444-4.6933333-23.4666666-6.5422222-35.2711111-6.5422222-28.8711111 0-48.0711111 15.0755556-48.0711111 40.2488889 0 39.2533329 54.0444444 32.9955559 54.0444444 49.9199999 0 6.542222-5.6888888 8.675556-13.6533333 8.675556-11.8044444 0-26.88-4.835556-38.82666666-11.377778v33.848889c13.22666666 5.688889 26.59555556 8.106666 38.82666666 8.106666 29.5822222 0 49.92-14.648888 49.92-40.106666-.1422222-42.3822224-54.3288889-34.8444447-54.3288889-50.7733336zm96.1422218-66.9866666-34.7022218 7.3955555-.1422222 113.9199997c0 21.048889 15.786667 36.551111 36.835556 36.551111 11.662222 0 20.195555-2.133333 24.888888-4.693333v-28.871111c-4.551111 1.848889-27.022222 8.391111-27.022222-12.657778v-50.4888887h27.022222v-30.2933333h-27.022222zm71.111112 41.3866666-2.275556-10.5244444h-30.72v124.444444h35.555556v-84.3377773c8.391111-10.9511111 22.613333-8.96 27.022222-7.3955556v-32.7111111c-4.551111-1.7066667-21.191111-4.8355556-29.582222 10.5244444zm38.257777-10.5244444h35.697778v124.444444h-35.697778zm0-10.8088889 35.697778-7.68v-28.8711111l-35.697778 7.53777778zm109.937778 8.3911111c-13.937778 0-22.897778 6.5422222-27.875555 11.0933334l-1.848889-8.8177778h-31.288889v165.8311112l35.555555-7.537778.142223-40.248889c5.12 3.697778 12.657777 8.96 25.173333 8.96 25.457778 0 48.64-20.48 48.64-65.564444-.142222-41.2444447-23.608889-63.7155558-48.497778-63.7155558zm-8.533333 97.9911108c-8.391111 0-13.368889-2.986666-16.782222-6.684444l-.142223-52.7644446c3.697778-4.1244444 8.817778-6.9688888 16.924445-6.9688888 12.942222 0 21.902222 14.5066666 21.902222 33.1377774 0 19.057778-8.817778 33.28-21.902222 33.28zm169.102222-32.853333c0-36.4088889-17.635556-65.1377778-51.342222-65.1377778-33.848889 0-54.328889 28.7288889-54.328889 64.8533338 0 42.808888 24.177778 64.426666 58.88 64.426666 16.924444 0 29.724444-3.84 39.395555-9.244444v-28.444445c-9.671111 4.835556-20.764444 7.822223-34.844444 7.822223-13.795556 0-26.026667-4.835556-27.591111-21.617778h69.546667c0-1.848889.284444-9.244445.284444-12.657778zm-70.257778-13.5111111c0-16.0711111 9.813334-22.7555556 18.773334-22.7555556 8.675555 0 17.92 6.6844445 17.92 22.7555556z" fill="#6772e5"/></svg>

<?xml version="1.0" encoding="UTF-8"?>
<svg width="512px" height="214px" viewBox="0 0 512 214" version="1.1" xmlns="http://www.w3.org/2000/svg" xmlns:xlink="http://www.w3.org/1999/xlink" preserveAspectRatio="xMidYMid">
    <g>
        <path d="M35.9822222,83.4844444 C35.9822222,77.9377778 40.5333333,75.8044444 48.0711111,75.8044444 C58.88,75.8044444 72.5333333,79.0755556 83.3422222,84.9066667 L83.3422222,51.4844444 C71.5377778,46.7911111 59.8755556,44.9422222 48.0711111,44.9422222 C19.2,44.9422222 0,60.0177778 0,85.1911111 C0,124.444444 54.0444444,118.186667 54.0444444,135.111111 C54.0444444,141.653333 48.3555556,143.786667 40.3911111,143.786667 C28.5866667,143.786667 13.5111111,138.951111 1.56444444,132.408889 L1.56444444,166.257778 C14.7911111,171.946667 28.16,174.364444 40.3911111,174.364444 C69.9733333,174.364444 90.3111111,159.715556 90.3111111,134.257778 C90.1688889,91.8755556 35.9822222,99.4133333 35.9822222,83.4844444 Z M132.124444,16.4977778 L97.4222222,23.8933333 L97.28,137.813333 C97.28,158.862222 113.066667,174.364444 134.115556,174.364444 C145.777778,174.364444 154.311111,172.231111 159.004444,169.671111 L159.004444,140.8 C154.453333,142.648889 131.982222,149.191111 131.982222,128.142222 L131.982222,77.6533333 L159.004444,77.6533333 L159.004444,47.36 L131.982222,47.36 L132.124444,16.4977778 Z M203.235556,57.8844444 L200.96,47.36 L170.24,47.36 L170.24,171.804444 L205.795556,171.804444 L205.795556,87.4666667 C214.186667,76.5155556 228.408889,78.5066667 232.817778,80.0711111 L232.817778,47.36 C228.266667,45.6533333 211.626667,42.5244444 203.235556,57.8844444 Z M241.493333,47.36 L277.191111,47.36 L277.191111,171.804444 L241.493333,171.804444 L241.493333,47.36 Z M241.493333,36.5511111 L277.191111,28.8711111 L277.191111,0 L241.493333,7.53777778 L241.493333,36.5511111 Z M351.431111,44.9422222 C337.493333,44.9422222 328.533333,51.4844444 323.555556,56.0355556 L321.706667,47.2177778 L290.417778,47.2177778 L290.417778,213.048889 L325.973333,205.511111 L326.115556,165.262222 C331.235556,168.96 338.773333,174.222222 351.288889,174.222222 C376.746667,174.222222 399.928889,153.742222 399.928889,108.657778 C399.786667,67.4133333 376.32,44.9422222 351.431111,44.9422222 Z M342.897778,142.933333 C334.506667,142.933333 329.528889,139.946667 326.115556,136.248889 L325.973333,83.4844444 C329.671111,79.36 334.791111,76.5155556 342.897778,76.5155556 C355.84,76.5155556 364.8,91.0222222 364.8,109.653333 C364.8,128.711111 355.982222,142.933333 342.897778,142.933333 Z M512,110.08 C512,73.6711111 494.364444,44.9422222 460.657778,44.9422222 C426.808889,44.9422222 406.328889,73.6711111 406.328889,109.795556 C406.328889,152.604444 430.506667,174.222222 465.208889,174.222222 C482.133333,174.222222 494.933333,170.382222 504.604444,164.977778 L504.604444,136.533333 C494.933333,141.368889 483.84,144.355556 469.76,144.355556 C455.964444,144.355556 443.733333,139.52 442.168889,122.737778 L511.715556,122.737778 C511.715556,120.888889 512,113.493333 512,110.08 Z M441.742222,96.5688889 C441.742222,80.4977778 451.555556,73.8133333 460.515556,73.8133333 C469.191111,73.8133333 478.435556,80.4977778 478.435556,96.5688889 L441.742222,96.5688889 L441.742222,96.5688889 Z" fill="#6772E5"></path>
    </g>
</svg>
